projects/canopy/src/assets/brand-icons/cash-liquidity.svg

<svg width="320" height="320" viewBox="0 0 320 320" fill="none" xmlns="http://www.w3.org/2000/svg">
<g id="am-cash-liquidity">
<g id="lg-icon-fill-primary">
<path d="M288 204C290.209 204 292 205.791 292 208V224C292 226.209 290.209 228 288 228H276V248C276 250.209 274.209 252 272 252H64C61.7909 252 60 250.209 60 248V228H40C37.7909 228 36 226.209 36 224V208C36 205.791 37.7909 204 40 204H288Z" fill="#42AEEA"/>
<path d="M156 173.576C141.653 165.277 132 149.766 132 132C132 114.233 141.653 98.7224 156 90.4229V173.576Z" fill="#42AEEA"/>
<path d="M204 90.4229C218.347 98.7224 228 114.233 228 132C228 149.766 218.347 165.277 204 173.576V90.4229Z" fill="#42AEEA"/>
<path d="M92 116C100.837 116 108 123.163 108 132C108 140.837 100.837 148 92 148C83.1634 148 76 140.837 76 132C76 123.163 83.1634 116 92 116Z" fill="#42AEEA"/>
<path d="M268 116C276.837 116 284 123.163 284 132C284 140.837 276.837 148 268 148C259.163 148 252 140.837 252 132C252 123.163 259.163 116 268 116Z" fill="#42AEEA"/>
</g>
<g id="Outlines">
<path fill-rule="evenodd" clip-rule="evenodd" d="M268 112C279.046 112 288 120.954 288 132C288 143.046 279.046 152 268 152C256.954 152 248 143.046 248 132C248 120.954 256.954 112 268 112ZM268 120C261.373 120 256 125.373 256 132C256 138.627 261.373 144 268 144C274.627 144 280 138.627 280 132C280 125.373 274.627 120 268 120Z" fill="#1D1D1B"/>
<path fill-rule="evenodd" clip-rule="evenodd" d="M200 52C202.961 52 205.543 53.6095 206.927 56H304C308.418 56 312 59.5817 312 64V200C312 204.418 308.418 208 304 208H296V224C296 228.418 292.418 232 288 232H280V248C280 252.418 276.418 256 272 256H206.927C205.543 258.39 202.961 260 200 260H160C157.039 260 154.457 258.39 153.073 256H60C57.7909 256 56 254.209 56 252C56 249.791 57.7909 248 60 248H152V232H36C33.7909 232 32 230.209 32 228C32 225.791 33.7909 224 36 224H152V208H12C9.79086 208 8 206.209 8 204C8 201.791 9.79086 200 12 200H152V175.821C137.568 166.581 128 150.409 128 132C128 113.591 137.567 97.4173 152 88.1768V64H12C9.79086 64 8 62.2091 8 60C8 57.7909 9.79086 56 12 56H153.073C154.457 53.6095 157.039 52 160 52H200ZM160 252H200V208H160V252ZM208 248H272V232H208V248ZM208 224H288V208H208V224ZM160 200H200V60H160V200ZM208 88.1768C222.433 97.4173 232 113.591 232 132C232 150.409 222.432 166.581 208 175.821V200H304V64H208V88.1768ZM152 98.0605C142.229 106.131 136 118.337 136 132C136 145.662 142.229 157.868 152 165.938V98.0605ZM208 165.938C217.771 157.868 224 145.662 224 132C224 118.337 217.771 106.131 208 98.0605V165.938Z" fill="#1D1D1B"/>
<path d="M92 164C94.2091 164 96 165.791 96 168C96 170.209 94.2091 172 92 172H28C25.7909 172 24 170.209 24 168C24 165.791 25.7909 164 28 164H92Z" fill="#1D1D1B"/>
<path fill-rule="evenodd" clip-rule="evenodd" d="M92 112C103.046 112 112 120.954 112 132C112 143.046 103.046 152 92 152C82.3242 152 74.2535 145.129 72.4004 136H36C33.7909 136 32 134.209 32 132C32 129.791 33.7909 128 36 128H72.4004C74.2535 118.871 82.3242 112 92 112ZM92 120C85.3726 120 80 125.373 80 132C80 138.627 85.3726 144 92 144C98.6274 144 104 138.627 104 132C104 125.373 98.6274 120 92 120Z" fill="#1D1D1B"/>
<path d="M84 92C86.2091 92 88 93.7909 88 96C88 98.2091 86.2091 100 84 100H20C17.7909 100 16 98.2091 16 96C16 93.7909 17.7909 92 20 92H84Z" fill="#1D1D1B"/>
</g>
</g>
</svg>

<svg xmlns="http://www.w3.org/2000/svg" width="320" height="320" fill="none" viewBox="0 0 320 320"><g id="am-cash-liquidity"><path id="lg-icon-fill-primary" fill="#42AEEA" d="M288 204a4 4 0 0 1 4 4v16a4 4 0 0 1-4 4h-12v20a4 4 0 0 1-4 4H64a4 4 0 0 1-4-4v-20H40a4 4 0 0 1-4-4v-16a4 4 0 0 1 4-4zm-132-30.424c-14.347-8.299-24-23.81-24-41.576s9.653-33.278 24-41.577zm48-83.153c14.347 8.3 24 23.81 24 41.577 0 17.766-9.653 33.277-24 41.576zM92 116c8.837 0 16 7.163 16 16s-7.163 16-16 16-16-7.163-16-16 7.163-16 16-16m176 0c8.837 0 16 7.163 16 16s-7.163 16-16 16-16-7.163-16-16 7.163-16 16-16"/><g id="Outlines" fill="#1D1D1B"><path fill-rule="evenodd" d="M268 112c11.046 0 20 8.954 20 20s-8.954 20-20 20-20-8.954-20-20 8.954-20 20-20m0 8c-6.627 0-12 5.373-12 12s5.373 12 12 12 12-5.373 12-12-5.373-12-12-12" clip-rule="evenodd"/><path fill-rule="evenodd" d="M200 52a8 8 0 0 1 6.927 4H304a8 8 0 0 1 8 8v136a8 8 0 0 1-8 8h-8v16a8 8 0 0 1-8 8h-8v16a8 8 0 0 1-8 8h-65.073a8 8 0 0 1-6.927 4h-40a8 8 0 0 1-6.927-4H60a4 4 0 0 1 0-8h92v-16H36a4 4 0 0 1 0-8h116v-16H12a4 4 0 0 1 0-8h140v-24.179c-14.432-9.24-24-25.412-24-43.821s9.567-34.583 24-43.823V64H12a4 4 0 0 1 0-8h141.073A8 8 0 0 1 160 52zm-40 200h40v-44h-40zm48-4h64v-16h-64zm0-24h80v-16h-80zm-48-24h40V60h-40zm48-111.823c14.433 9.24 24 25.414 24 43.823s-9.568 34.581-24 43.821V200h96V64h-96zm-56 9.883c-9.771 8.071-16 20.277-16 33.94s6.229 25.868 16 33.938zm56 67.878c9.771-8.07 16-20.276 16-33.938s-6.229-25.869-16-33.94z" clip-rule="evenodd"/><path d="M92 164a4 4 0 0 1 0 8H28a4 4 0 0 1 0-8z"/><path fill-rule="evenodd" d="M92 112c11.046 0 20 8.954 20 20s-8.954 20-20 20c-9.676 0-17.746-6.871-19.6-16H36a4 4 0 0 1 0-8h36.4c1.853-9.129 9.924-16 19.6-16m0 8c-6.627 0-12 5.373-12 12s5.373 12 12 12 12-5.373 12-12-5.373-12-12-12" clip-rule="evenodd"/><path d="M84 92a4 4 0 0 1 0 8H20a4 4 0 0 1 0-8z"/></g></g></svg>
